trash-can-outline.svg

<svg fill="currentColor" viewBox="0 0 24 24"><path d="M9 3v1H4v2h1v13a2 2 0 0 0 2 2h10a2 2 0 0 0 2-2V6h1V4h-5V3zM7 6h10v13H7zm2 2v9h2V8zm4 0v9h2V8z"/></svg>

<svg  viewBox="0 0 24 24" fill="currentColor"><path  d="M9,3V4H4V6H5V19A2,2 0 0,0 7,21H17A2,2 0 0,0 19,19V6H20V4H15V3H9M7,6H17V19H7V6M9,8V17H11V8H9M13,8V17H15V8H13Z"/></svg>
